public/NigeriaCountry.svg

<svg width="60" height="61" viewBox="0 0 60 61" fill="none" xmlns="http://www.w3.org/2000/svg">
<g clip-path="url(#clip0_38_6376)">
<path d="M30 56.5C44.3594 56.5 56 44.8594 56 30.5C56 16.1406 44.3594 4.5 30 4.5C15.6406 4.5 4 16.1406 4 30.5C4 44.8594 15.6406 56.5 30 56.5Z" fill="white"/>
<g clip-path="url(#clip1_38_6376)">
<path d="M56 31C56 37.9449 53.2955 44.474 48.3848 49.3848C43.474 54.2955 36.9449 57 30 57C23.0551 57 16.526 54.2955 11.6152 49.3848C6.70445 44.474 4 37.9449 4 31C4 24.0551 6.70445 17.526 11.6152 12.6152C16.526 7.70445 23.0551 5 30 5C36.9449 5 43.474 7.70445 48.3848 12.6152C53.2955 17.526 56 24.0551 56 31Z" fill="#EFEFEF"/>
<path d="M56 31C56 37.9509 53.295 44.4853 48.3837 49.4005C45.7162 52.0702 42.5708 54.0893 39.1406 55.375V6.625C42.5708 7.91069 45.7162 9.92979 48.3837 12.5995C53.295 17.5147 56 24.0491 56 31Z" fill="#187F44"/>
<path d="M20.8594 6.625V55.375C17.4292 54.0893 14.2838 52.0702 11.6163 49.4005C6.70505 44.4853 4 37.9509 4 31C4 24.0491 6.70505 17.5147 11.6163 12.5995C14.2838 9.92979 17.4292 7.91069 20.8594 6.625Z" fill="#187F44"/>
<path opacity="0.13" d="M56 31.0049C56 37.9483 53.2959 44.4758 48.3863 49.3857C43.4767 54.2957 36.9497 57 30.0067 57C24.7088 57 19.6535 55.4255 15.375 52.4983C19.7661 54.4104 24.6095 55.0857 29.4738 54.4126C36.451 53.4472 42.6338 49.8216 46.8847 44.2055C51.1345 38.5883 52.9439 31.6526 51.9785 24.6761C51.1334 18.5778 48.2594 13.0864 43.7988 8.96094C45.4416 9.99258 46.9807 11.2184 48.3863 12.6241C53.2959 17.534 56 24.0615 56 31.0049Z" fill="#160204"/>
<path opacity="0.25" d="M42.3906 8.11362C37.7573 6.77763 32.8314 6.7136 28.0478 7.97781C21.0753 9.8217 15.2392 14.2691 11.6121 20.5008C7.98607 26.7335 7.00419 34.0042 8.84867 40.9745C9.97413 45.2297 12.0704 49.061 14.952 52.2266C13.7769 51.3896 12.6635 50.4478 11.622 49.4066C6.70708 44.4933 4 37.9613 4 31.0131C4 24.0649 6.70708 17.5329 11.622 12.6195C16.537 7.7062 23.0711 5 30.0216 5C34.4119 5 38.6354 6.07983 42.3906 8.11362Z" fill="white"/>
</g>
</g>
<rect x="2" y="2.5" width="56" height="56" rx="28" stroke="white" stroke-width="4"/>
<defs>
<clipPath id="clip0_38_6376">
<rect x="4" y="4.5" width="52" height="52" rx="26" fill="white"/>
</clipPath>
<clipPath id="clip1_38_6376">
<rect width="52" height="52" fill="white" transform="translate(4 5)"/>
</clipPath>
</defs>
</svg>

<svg xmlns="http://www.w3.org/2000/svg" width="60" height="61" fill="none"><g clip-path="url(#a)"><path fill="#fff" d="M30 56.5c14.36 0 26-11.64 26-26s-11.64-26-26-26-26 11.64-26 26 11.64 26 26 26"/><g clip-path="url(#b)"><path fill="#EFEFEF" d="M56 31c0 6.945-2.705 13.474-7.615 18.385C43.474 54.295 36.945 57 30 57s-13.474-2.705-18.385-7.615C6.705 44.474 4 37.945 4 31s2.704-13.474 7.615-18.385C16.526 7.705 23.055 5 30 5s13.474 2.704 18.385 7.615C53.295 17.526 56 24.055 56 31"/><path fill="#187F44" d="M56 31c0 6.95-2.705 13.485-7.616 18.4a25.9 25.9 0 0 1-9.243 5.975V6.625a25.9 25.9 0 0 1 9.243 5.975C53.295 17.515 56 24.05 56 31M20.86 6.625v48.75a25.9 25.9 0 0 1-9.244-5.974C6.706 44.485 4 37.95 4 31c0-6.95 2.705-13.485 7.616-18.4a25.9 25.9 0 0 1 9.243-5.975"/><path fill="#160204" d="M56 31.005c0 6.943-2.704 13.47-7.614 18.38S36.95 57 30.006 57c-5.297 0-10.352-1.575-14.631-4.502 4.391 1.912 9.235 2.588 14.099 1.915 6.977-.966 13.16-4.591 17.41-10.207 4.25-5.618 6.06-12.553 5.094-19.53-.845-6.098-3.719-11.59-8.18-15.715a26.2 26.2 0 0 1 4.588 3.663C53.296 17.534 56 24.061 56 31.004" opacity=".13"/><path fill="#fff" d="M42.39 8.114c-4.633-1.336-9.559-1.4-14.342-.136-6.973 1.844-12.809 6.291-16.436 12.523-3.626 6.232-4.608 13.503-2.763 20.473a26.86 26.86 0 0 0 6.103 11.253 26 26 0 0 1-3.33-2.82C6.707 44.493 4 37.96 4 31.013s2.707-13.48 7.622-18.393S23.072 5 30.022 5c4.39 0 8.613 1.08 12.369 3.114" opacity=".25"/></g></g><rect width="56" height="56" x="2" y="2.5" stroke="#fff" stroke-width="4" rx="28"/><defs><clipPath id="a"><rect width="52" height="52" x="4" y="4.5" fill="#fff" rx="26"/></clipPath><clipPath id="b"><path fill="#fff" d="M4 5h52v52H4z"/></clipPath></defs></svg>
